src/img/projects/docsearch.svg

<?xml version="1.0" encoding="UTF-8"?>
<svg width="90px" height="90px" viewBox="0 0 90 90" version="1.1" xmlns="http://www.w3.org/2000/svg" xmlns:xlink="http://www.w3.org/1999/xlink">
    <!-- Generator: Sketch 41.2 (35397) - http://www.bohemiancoding.com/sketch -->
    <title>community/card/logo/docsearch</title>
    <desc>Created with Sketch.</desc>
    <defs></defs>
    <g id="Symbols" stroke="none" stroke-width="1" fill="none" fill-rule="evenodd">
        <g id="community/card/logo/docsearch" fill="#FFFFFF">
            <path d="M15.1439042,27.8125 L56.475345,27.8125 C66.0119345,27.8125 73.7373222,35.5083426 73.7373222,45 C73.7373222,54.4885016 66.000899,62.1875 56.4563695,62.1875 L15.7248311,62.1875 C14.5869563,62.1875 13.6645266,63.1109127 13.6645266,64.25 C13.6645266,65.3890873 14.5869563,66.3125 15.7248311,66.3125 L56.4563695,66.3125 C68.2712108,66.3125 77.8579311,56.7721553 77.8579311,45 C77.8579311,33.225634 68.2831793,23.6875 56.475345,23.6875 L15.1439042,23.6875 C14.0060295,23.6875 13.0835997,24.6109127 13.0835997,25.75 C13.0835997,26.8890873 14.0060295,27.8125 15.1439042,27.8125 L15.1439042,27.8125 Z" id="d-shape"></path>
            <path d="M28.5289199,56.6875 L57.8168164,56.6875 C58.9546911,56.6875 59.8771208,55.7640873 59.8771208,54.625 C59.8771208,53.4859127 58.9546911,52.5625 57.8168164,52.5625 L28.5289199,52.5625 C27.3910452,52.5625 26.4686155,53.4859127 26.4686155,54.625 C26.4686155,55.7640873 27.3910452,56.6875 28.5289199,56.6875 L28.5289199,56.6875 Z" id="line-3"></path>
            <path d="M28.228105,47.0625 L64.993402,47.0625 C66.1312767,47.0625 67.0537064,46.1390873 67.0537064,45 C67.0537064,43.8609127 66.1312767,42.9375 64.993402,42.9375 L28.228105,42.9375 C27.0902303,42.9375 26.1678005,43.8609127 26.1678005,45 C26.1678005,46.1390873 27.0902303,47.0625 28.228105,47.0625 L28.228105,47.0625 Z" id="line-2"></path>
            <path d="M28.5289199,37.4375 L57.8168164,37.4375 C58.9546911,37.4375 59.8771208,36.5140873 59.8771208,35.375 C59.8771208,34.2359127 58.9546911,33.3125 57.8168164,33.3125 L28.5289199,33.3125 C27.3910452,33.3125 26.4686155,34.2359127 26.4686155,35.375 C26.4686155,36.5140873 27.3910452,37.4375 28.5289199,37.4375 L28.5289199,37.4375 Z" id="line-1"></path>
            <ellipse id="circle-3" cx="20.1038844" cy="45" rx="2.06273119" ry="2.0625"></ellipse>
            <ellipse id="circle-2" cx="20.1038844" cy="54.625" rx="2.06273119" ry="2.0625"></ellipse>
            <ellipse id="circle-1" cx="20.1038844" cy="35.375" rx="2.06273119" ry="2.0625"></ellipse>
        </g>
    </g>
</svg>

<svg width="90" height="90" viewBox="0 0 90 90" xmlns="http://www.w3.org/2000/svg"><title>community/card/logo/docsearch</title><g fill="#FFF" fill-rule="evenodd"><path d="M15.144 27.813h41.331c9.537 0 17.262 7.695 17.262 17.187 0 9.489-7.736 17.188-17.28 17.188H15.724a2.061 2.061 0 1 0 0 4.125h40.731c11.815 0 21.402-9.54 21.402-21.313 0-11.774-9.575-21.313-21.383-21.313H15.144c-1.138 0-2.06.924-2.06 2.063 0 1.14.922 2.063 2.06 2.063z"/><path d="M28.529 56.688h29.288c1.138 0 2.06-.924 2.06-2.063 0-1.14-.922-2.063-2.06-2.063H28.529c-1.138 0-2.06.924-2.06 2.063 0 1.14.922 2.063 2.06 2.063zM28.228 47.063h36.765c1.138 0 2.06-.924 2.06-2.063 0-1.14-.922-2.063-2.06-2.063H28.228c-1.138 0-2.06.924-2.06 2.063 0 1.14.922 2.063 2.06 2.063zM28.529 37.438h29.288c1.138 0 2.06-.924 2.06-2.063 0-1.14-.922-2.063-2.06-2.063H28.529c-1.138 0-2.06.924-2.06 2.063 0 1.14.922 2.063 2.06 2.063z"/><ellipse cx="20.104" cy="45" rx="2.063" ry="2.063"/><ellipse cx="20.104" cy="54.625" rx="2.063" ry="2.063"/><ellipse cx="20.104" cy="35.375" rx="2.063" ry="2.063"/></g></svg>
